X:1
T:Elisæi Historie. Den Første Sang
T:Elisæi Historie. Den Første Sang 
T:Om Eliæ Skilsmisse 
T:Ole Andersen Mærli, Sørum
C:Ole Andersen Mærli, Sørum
L:1/8
M:4/4
K:C
V:1 treble nm="Piano" snm="Pno."
V:1
 E2 |"Am" A2"Em" B2"Am" c2"Em" (BA) | (GE)"B7" ^F2"Em" !fermata!E2"Am" c2 | %3
w: Da|Her- ren vil til *|Him- * me- len. Guds|
 A2"Em" B2"B7" c2"Em" B2 |"B7" A2 A2"Em" !fermata!G2"Am" (AG) |"Em" E2 G2"Am" A2"Em" G2 | %6
w: Mand E- li- am|hen- te hen Og *|han- nem til sig|
"Dm" F2"E" E4"Dm" D2 |"Em" E2 G2"Am" (cB) A2 |"Em" G2"B7" ^F2"Em" !fermata!E2"Am" (cB) | %9
w: ta- ge Han|sam- me Tid * fra|Gil- gal gaar. Og *|
 A2"Em" B2"Am" c2"Em" B2 |"B7" A2 A2"Em" !fermata!G2"Am" c2 |"Em" G2 B2"Am" A2 C2 | %12
w: E- li- sæ- us|med han var. Han|sag- de; jeg maa|
"Dm" (DE)"Em" G4"Am" A2 |"Em" G2"Dm" F2"Am" (ED) C2 |"Dm" D2"E" E4 z2 |] %15
w: dra- * ge Til|Be- thel nog- * le|Da- ge.|

